images/50514079.svg

<?xml version="1.0" encoding="UTF-8"?>
<svg xmlns="http://www.w3.org/2000/svg" xmlns:xlink="http://www.w3.org/1999/xlink" width="300pt" height="300pt" viewBox="0 0 300 300" version="1.1">
<defs>
<g>
<symbol overflow="visible" id="glyph0-0">
<path style="stroke:none;" d="M 0.453125 1.59375 L 0.453125 -6.34375 L 4.953125 -6.34375 L 4.953125 1.59375 Z M 0.953125 1.09375 L 4.453125 1.09375 L 4.453125 -5.84375 L 0.953125 -5.84375 Z M 0.953125 1.09375 "/>
</symbol>
<symbol overflow="visible" id="glyph0-1">
<path style="stroke:none;" d="M 0.890625 -6.5625 L 4.65625 -6.5625 L 4.65625 -5.8125 L 1.765625 -5.8125 L 1.765625 -3.875 L 4.375 -3.875 L 4.375 -3.140625 L 1.765625 -3.140625 L 1.765625 0 L 0.890625 0 Z M 0.890625 -6.5625 "/>
</symbol>
<symbol overflow="visible" id="glyph0-2">
<path style="stroke:none;" d="M 0.890625 -6.5625 L 2.078125 -6.5625 L 4.984375 -1.078125 L 4.984375 -6.5625 L 5.84375 -6.5625 L 5.84375 0 L 4.65625 0 L 1.75 -5.484375 L 1.75 0 L 0.890625 0 Z M 0.890625 -6.5625 "/>
</symbol>
<symbol overflow="visible" id="glyph0-3">
<path style="stroke:none;" d="M 3.546875 -5.953125 C 2.898438 -5.953125 2.382812 -5.710938 2 -5.234375 C 1.625 -4.753906 1.4375 -4.101562 1.4375 -3.28125 C 1.4375 -2.445312 1.625 -1.789062 2 -1.3125 C 2.382812 -0.832031 2.898438 -0.59375 3.546875 -0.59375 C 4.191406 -0.59375 4.703125 -0.832031 5.078125 -1.3125 C 5.453125 -1.789062 5.640625 -2.445312 5.640625 -3.28125 C 5.640625 -4.101562 5.453125 -4.753906 5.078125 -5.234375 C 4.703125 -5.710938 4.191406 -5.953125 3.546875 -5.953125 Z M 3.546875 -6.6875 C 4.460938 -6.6875 5.195312 -6.375 5.75 -5.75 C 6.300781 -5.132812 6.578125 -4.3125 6.578125 -3.28125 C 6.578125 -2.238281 6.300781 -1.410156 5.75 -0.796875 C 5.195312 -0.179688 4.460938 0.125 3.546875 0.125 C 2.617188 0.125 1.878906 -0.179688 1.328125 -0.796875 C 0.773438 -1.410156 0.5 -2.238281 0.5 -3.28125 C 0.5 -4.3125 0.773438 -5.132812 1.328125 -5.75 C 1.878906 -6.375 2.617188 -6.6875 3.546875 -6.6875 Z M 3.546875 -6.6875 "/>
</symbol>
<symbol overflow="visible" id="glyph0-4">
<path style="stroke:none;" d="M 0.890625 -6.5625 L 1.765625 -6.5625 L 1.765625 -3.875 L 5 -3.875 L 5 -6.5625 L 5.890625 -6.5625 L 5.890625 0 L 5 0 L 5 -3.125 L 1.765625 -3.125 L 1.765625 0 L 0.890625 0 Z M 0.890625 -6.5625 "/>
</symbol>
<symbol overflow="visible" id="glyph1-0">
<path style="stroke:none;" d="M 0.40625 1.421875 L 0.40625 -5.640625 L 4.40625 -5.640625 L 4.40625 1.421875 Z M 0.84375 0.96875 L 3.953125 0.96875 L 3.953125 -5.1875 L 0.84375 -5.1875 Z M 0.84375 0.96875 "/>
</symbol>
<symbol overflow="visible" id="glyph1-1">
<path style="stroke:none;" d="M 0.390625 -2.515625 L 2.5 -2.515625 L 2.5 -1.875 L 0.390625 -1.875 Z M 0.390625 -2.515625 "/>
</symbol>
</g>
</defs>
<g id="surface27269">
<rect x="0" y="0" width="300" height="300" style="fill:rgb(100%,100%,100%);fill-opacity:1;stroke:none;"/>
<path style="fill:none;stroke-width:1.2;stroke-linecap:butt;stroke-linejoin:miter;stroke:rgb(20%,80%,80%);stroke-opacity:1;stroke-miterlimit:10;" d="M 187.546875 119.601562 L 196.371094 126.605469 "/>
<path style="fill:none;stroke-width:1.2;stroke-linecap:butt;stroke-linejoin:miter;stroke:rgb(0%,0%,0%);stroke-opacity:1;stroke-miterlimit:10;" d="M 196.371094 126.605469 L 205.195312 133.609375 "/>
<path style=" stroke:none;fill-rule:nonzero;fill:rgb(100%,100%,100%);fill-opacity:1;" d="M 181.546875 114.101562 L 187.546875 114.101562 L 187.546875 125.101562 L 181.546875 125.101562 Z M 181.546875 114.101562 "/>
<g style="fill:rgb(20%,80%,80%);fill-opacity:1;">
  <use xlink:href="#glyph0-1" x="181.546875" y="122.764648"/>
</g>
<path style="fill:none;stroke-width:1.2;stroke-linecap:butt;stroke-linejoin:miter;stroke:rgb(0%,0%,0%);stroke-opacity:1;stroke-miterlimit:10;" d="M 205.195312 133.609375 L 226.148438 125.328125 "/>
<path style="fill:none;stroke-width:1.2;stroke-linecap:butt;stroke-linejoin:miter;stroke:rgb(0%,0%,0%);stroke-opacity:1;stroke-miterlimit:10;" d="M 209.238281 137.710938 L 226 131.085938 "/>
<path style="fill:none;stroke-width:1.2;stroke-linecap:butt;stroke-linejoin:miter;stroke:rgb(0%,0%,0%);stroke-opacity:1;stroke-miterlimit:10;" d="M 201.886719 155.894531 L 205.195312 133.609375 "/>
<path style="fill:none;stroke-width:1.2;stroke-linecap:butt;stroke-linejoin:miter;stroke:rgb(0%,0%,0%);stroke-opacity:1;stroke-miterlimit:10;" d="M 226.148438 125.328125 L 243.796875 139.335938 "/>
<path style="fill:none;stroke-width:1.2;stroke-linecap:butt;stroke-linejoin:miter;stroke:rgb(0%,0%,0%);stroke-opacity:1;stroke-miterlimit:10;" d="M 243.796875 139.335938 L 254.273438 135.199219 "/>
<path style="fill:none;stroke-width:1.2;stroke-linecap:butt;stroke-linejoin:miter;stroke:rgb(20%,80%,80%);stroke-opacity:1;stroke-miterlimit:10;" d="M 254.273438 135.199219 L 264.75 131.058594 "/>
<path style="fill:none;stroke-width:1.2;stroke-linecap:butt;stroke-linejoin:miter;stroke:rgb(0%,0%,0%);stroke-opacity:1;stroke-miterlimit:10;" d="M 243.796875 139.335938 L 240.488281 161.625 "/>
<path style="fill:none;stroke-width:1.2;stroke-linecap:butt;stroke-linejoin:miter;stroke:rgb(0%,0%,0%);stroke-opacity:1;stroke-miterlimit:10;" d="M 238.222656 140.789062 L 235.574219 158.617188 "/>
<path style=" stroke:none;fill-rule:nonzero;fill:rgb(100%,100%,100%);fill-opacity:1;" d="M 261.75 125.558594 L 267.75 125.558594 L 267.75 136.558594 L 261.75 136.558594 Z M 261.75 125.558594 "/>
<g style="fill:rgb(20%,80%,80%);fill-opacity:1;">
  <use xlink:href="#glyph0-1" x="261.75" y="134.22168"/>
</g>
<path style="fill:none;stroke-width:1.2;stroke-linecap:butt;stroke-linejoin:miter;stroke:rgb(0%,0%,0%);stroke-opacity:1;stroke-miterlimit:10;" d="M 240.488281 161.625 L 219.53125 169.902344 "/>
<path style="fill:none;stroke-width:1.2;stroke-linecap:butt;stroke-linejoin:miter;stroke:rgb(0%,0%,0%);stroke-opacity:1;stroke-miterlimit:10;" d="M 219.53125 169.902344 L 201.886719 155.894531 "/>
<path style="fill:none;stroke-width:1.2;stroke-linecap:butt;stroke-linejoin:miter;stroke:rgb(0%,0%,0%);stroke-opacity:1;stroke-miterlimit:10;" d="M 221.066406 164.347656 L 206.949219 153.140625 "/>
<path style="fill:none;stroke-width:1.2;stroke-linecap:butt;stroke-linejoin:miter;stroke:rgb(0%,0%,0%);stroke-opacity:1;stroke-miterlimit:10;" d="M 201.886719 155.894531 L 191.410156 160.03125 "/>
<path style="fill:none;stroke-width:1.2;stroke-linecap:butt;stroke-linejoin:miter;stroke:rgb(0%,0%,100%);stroke-opacity:1;stroke-miterlimit:10;" d="M 191.410156 160.03125 L 180.933594 164.171875 "/>
<path style="fill:none;stroke-width:1.2;stroke-linecap:butt;stroke-linejoin:miter;stroke:rgb(0%,0%,100%);stroke-opacity:1;stroke-miterlimit:10;" d="M 180.933594 164.171875 L 175.3125 185.992188 "/>
<path style="fill:none;stroke-width:1.2;stroke-linecap:butt;stroke-linejoin:miter;stroke:rgb(0%,0%,0%);stroke-opacity:1;stroke-miterlimit:10;" d="M 161.917969 152.085938 L 171.425781 158.128906 "/>
<path style="fill:none;stroke-width:1.2;stroke-linecap:butt;stroke-linejoin:miter;stroke:rgb(0%,0%,100%);stroke-opacity:1;stroke-miterlimit:10;" d="M 171.425781 158.128906 L 180.933594 164.171875 "/>
<path style=" stroke:none;fill-rule:nonzero;fill:rgb(100%,100%,100%);fill-opacity:1;" d="M 177.933594 158.671875 L 184.933594 158.671875 L 184.933594 169.671875 L 177.933594 169.671875 Z M 177.933594 158.671875 "/>
<g style="fill:rgb(0%,0%,100%);fill-opacity:1;">
  <use xlink:href="#glyph0-2" x="177.933594" y="167.334961"/>
</g>
<path style="fill:none;stroke-width:1.2;stroke-linecap:butt;stroke-linejoin:miter;stroke:rgb(0%,0%,100%);stroke-opacity:1;stroke-miterlimit:10;" d="M 175.3125 185.992188 L 164.070312 186.6875 "/>
<path style="fill:none;stroke-width:1.2;stroke-linecap:butt;stroke-linejoin:miter;stroke:rgb(0%,0%,0%);stroke-opacity:1;stroke-miterlimit:10;" d="M 164.070312 186.6875 L 152.824219 187.386719 "/>
<path style="fill:none;stroke-width:1.2;stroke-linecap:butt;stroke-linejoin:miter;stroke:rgb(0%,0%,100%);stroke-opacity:1;stroke-miterlimit:10;" d="M 172.734375 180.839844 L 163.742188 181.398438 "/>
<path style="fill:none;stroke-width:1.2;stroke-linecap:butt;stroke-linejoin:miter;stroke:rgb(0%,0%,0%);stroke-opacity:1;stroke-miterlimit:10;" d="M 163.742188 181.398438 L 154.746094 181.957031 "/>
<path style=" stroke:none;fill-rule:nonzero;fill:rgb(100%,100%,100%);fill-opacity:1;" d="M 172.3125 180.492188 L 179.3125 180.492188 L 179.3125 191.492188 L 172.3125 191.492188 Z M 172.3125 180.492188 "/>
<g style="fill:rgb(0%,0%,100%);fill-opacity:1;">
  <use xlink:href="#glyph0-2" x="172.3125" y="189.155273"/>
</g>
<path style="fill:none;stroke-width:1.2;stroke-linecap:butt;stroke-linejoin:miter;stroke:rgb(0%,0%,0%);stroke-opacity:1;stroke-miterlimit:10;" d="M 152.824219 187.386719 L 144.546875 166.433594 "/>
<path style="fill:none;stroke-width:1.2;stroke-linecap:butt;stroke-linejoin:miter;stroke:rgb(0%,0%,0%);stroke-opacity:1;stroke-miterlimit:10;" d="M 144.546875 166.433594 L 161.917969 152.085938 "/>
<path style="fill:none;stroke-width:1.2;stroke-linecap:butt;stroke-linejoin:miter;stroke:rgb(0%,0%,0%);stroke-opacity:1;stroke-miterlimit:10;" d="M 142.910156 160.910156 L 156.804688 149.433594 "/>
<path style="fill:none;stroke-width:1.2;stroke-linecap:butt;stroke-linejoin:miter;stroke:rgb(0%,0%,0%);stroke-opacity:1;stroke-miterlimit:10;" d="M 123.4375 158.566406 L 144.546875 166.433594 "/>
<path style="fill:none;stroke-width:1.2;stroke-linecap:butt;stroke-linejoin:miter;stroke:rgb(0%,0%,0%);stroke-opacity:1;stroke-miterlimit:10;" d="M 161.917969 152.085938 L 160.046875 140.976562 "/>
<path style="fill:none;stroke-width:1.2;stroke-linecap:butt;stroke-linejoin:miter;stroke:rgb(0%,0%,100%);stroke-opacity:1;stroke-miterlimit:10;" d="M 160.046875 140.976562 L 158.175781 129.867188 "/>
<path style="fill:none;stroke-width:1.2;stroke-linecap:butt;stroke-linejoin:miter;stroke:rgb(0%,0%,100%);stroke-opacity:1;stroke-miterlimit:10;" d="M 158.175781 129.867188 L 166.863281 122.695312 "/>
<path style="fill:none;stroke-width:1.2;stroke-linecap:butt;stroke-linejoin:miter;stroke:rgb(0%,0%,0%);stroke-opacity:1;stroke-miterlimit:10;" d="M 166.863281 122.695312 L 175.546875 115.519531 "/>
<path style="fill:none;stroke-width:1.2;stroke-linecap:butt;stroke-linejoin:miter;stroke:rgb(0%,0%,100%);stroke-opacity:1;stroke-miterlimit:10;" d="M 158.175781 129.867188 L 147.621094 125.933594 "/>
<path style="fill:none;stroke-width:1.2;stroke-linecap:butt;stroke-linejoin:miter;stroke:rgb(0%,0%,0%);stroke-opacity:1;stroke-miterlimit:10;" d="M 147.621094 125.933594 L 137.066406 122 "/>
<path style=" stroke:none;fill-rule:nonzero;fill:rgb(100%,100%,100%);fill-opacity:1;" d="M 155.175781 124.367188 L 162.175781 124.367188 L 162.175781 135.367188 L 155.175781 135.367188 Z M 155.175781 124.367188 "/>
<g style="fill:rgb(0%,0%,100%);fill-opacity:1;">
  <use xlink:href="#glyph0-2" x="155.175781" y="133.030273"/>
</g>
<path style="fill:none;stroke-width:1.2;stroke-linecap:butt;stroke-linejoin:miter;stroke:rgb(0%,0%,0%);stroke-opacity:1;stroke-miterlimit:10;" d="M 139.679688 121.558594 L 137.808594 110.449219 "/>
<path style="fill:none;stroke-width:1.2;stroke-linecap:butt;stroke-linejoin:miter;stroke:rgb(100%,0%,0%);stroke-opacity:1;stroke-miterlimit:10;" d="M 137.808594 110.449219 L 135.941406 99.339844 "/>
<path style="fill:none;stroke-width:1.2;stroke-linecap:butt;stroke-linejoin:miter;stroke:rgb(0%,0%,0%);stroke-opacity:1;stroke-miterlimit:10;" d="M 134.453125 122.4375 L 132.582031 111.328125 "/>
<path style="fill:none;stroke-width:1.2;stroke-linecap:butt;stroke-linejoin:miter;stroke:rgb(100%,0%,0%);stroke-opacity:1;stroke-miterlimit:10;" d="M 132.582031 111.328125 L 130.710938 100.222656 "/>
<path style="fill:none;stroke-width:1.2;stroke-linecap:butt;stroke-linejoin:miter;stroke:rgb(0%,0%,0%);stroke-opacity:1;stroke-miterlimit:10;" d="M 137.066406 122 L 119.695312 136.347656 "/>
<path style=" stroke:none;fill-rule:nonzero;fill:rgb(100%,100%,100%);fill-opacity:1;" d="M 129.324219 94.28125 L 137.324219 94.28125 L 137.324219 105.28125 L 129.324219 105.28125 Z M 129.324219 94.28125 "/>
<g style="fill:rgb(100%,0%,0%);fill-opacity:1;">
  <use xlink:href="#glyph0-3" x="129.324219" y="102.944336"/>
</g>
<path style="fill:none;stroke-width:1.2;stroke-linecap:butt;stroke-linejoin:miter;stroke:rgb(0%,0%,0%);stroke-opacity:1;stroke-miterlimit:10;" d="M 119.695312 136.347656 L 123.4375 158.566406 "/>
<path style="fill:none;stroke-width:1.2;stroke-linecap:butt;stroke-linejoin:miter;stroke:rgb(0%,0%,0%);stroke-opacity:1;stroke-miterlimit:10;" d="M 125.296875 137.6875 L 128.289062 155.460938 "/>
<path style="fill:none;stroke-width:1.2;stroke-linecap:butt;stroke-linejoin:miter;stroke:rgb(0%,0%,0%);stroke-opacity:1;stroke-miterlimit:10;" d="M 123.4375 158.566406 L 114.75 165.738281 "/>
<path style="fill:none;stroke-width:1.2;stroke-linecap:butt;stroke-linejoin:miter;stroke:rgb(0%,0%,100%);stroke-opacity:1;stroke-miterlimit:10;" d="M 114.75 165.738281 L 106.066406 172.914062 "/>
<path style="fill:none;stroke-width:1.2;stroke-linecap:butt;stroke-linejoin:miter;stroke:rgb(0%,0%,100%);stroke-opacity:1;stroke-miterlimit:10;" d="M 106.066406 172.914062 L 95.511719 168.976562 "/>
<path style="fill:none;stroke-width:1.2;stroke-linecap:butt;stroke-linejoin:miter;stroke:rgb(0%,0%,0%);stroke-opacity:1;stroke-miterlimit:10;" d="M 95.511719 168.976562 L 84.953125 165.042969 "/>
<path style=" stroke:none;fill-rule:nonzero;fill:rgb(100%,100%,100%);fill-opacity:1;" d="M 99.066406 167.414062 L 113.066406 167.414062 L 113.066406 178.414062 L 99.066406 178.414062 Z M 99.066406 167.414062 "/>
<g style="fill:rgb(0%,0%,100%);fill-opacity:1;">
  <use xlink:href="#glyph0-2" x="99.066406" y="176.077148"/>
  <use xlink:href="#glyph0-4" x="106.043945" y="176.077148"/>
</g>
<path style="fill:none;stroke-width:1.2;stroke-linecap:butt;stroke-linejoin:miter;stroke:rgb(0%,0%,0%);stroke-opacity:1;stroke-miterlimit:10;" d="M 84.953125 165.042969 L 81.214844 142.824219 "/>
<path style="fill:none;stroke-width:1.2;stroke-linecap:butt;stroke-linejoin:miter;stroke:rgb(0%,0%,0%);stroke-opacity:1;stroke-miterlimit:10;" d="M 79.351562 163.703125 L 76.359375 145.929688 "/>
<path style="fill:none;stroke-width:1.2;stroke-linecap:butt;stroke-linejoin:miter;stroke:rgb(0%,0%,0%);stroke-opacity:1;stroke-miterlimit:10;" d="M 67.582031 179.390625 L 84.953125 165.042969 "/>
<path style="fill:none;stroke-width:1.2;stroke-linecap:butt;stroke-linejoin:miter;stroke:rgb(0%,0%,0%);stroke-opacity:1;stroke-miterlimit:10;" d="M 81.214844 142.824219 L 60.101562 134.957031 "/>
<path style="fill:none;stroke-width:1.2;stroke-linecap:butt;stroke-linejoin:miter;stroke:rgb(0%,0%,0%);stroke-opacity:1;stroke-miterlimit:10;" d="M 60.101562 134.957031 L 42.730469 149.304688 "/>
<path style="fill:none;stroke-width:1.2;stroke-linecap:butt;stroke-linejoin:miter;stroke:rgb(0%,0%,0%);stroke-opacity:1;stroke-miterlimit:10;" d="M 61.742188 140.480469 L 47.84375 151.957031 "/>
<path style="fill:none;stroke-width:1.2;stroke-linecap:butt;stroke-linejoin:miter;stroke:rgb(0%,0%,0%);stroke-opacity:1;stroke-miterlimit:10;" d="M 60.101562 134.957031 L 56.363281 112.738281 "/>
<path style="fill:none;stroke-width:1.2;stroke-linecap:butt;stroke-linejoin:miter;stroke:rgb(0%,0%,0%);stroke-opacity:1;stroke-miterlimit:10;" d="M 42.730469 149.304688 L 46.472656 171.523438 "/>
<path style="fill:none;stroke-width:1.2;stroke-linecap:butt;stroke-linejoin:miter;stroke:rgb(0%,0%,0%);stroke-opacity:1;stroke-miterlimit:10;" d="M 46.472656 171.523438 L 67.582031 179.390625 "/>
<path style="fill:none;stroke-width:1.2;stroke-linecap:butt;stroke-linejoin:miter;stroke:rgb(0%,0%,0%);stroke-opacity:1;stroke-miterlimit:10;" d="M 50.433594 167.34375 L 67.324219 173.636719 "/>
<path style="fill:none;stroke-width:1.2;stroke-linecap:butt;stroke-linejoin:miter;stroke:rgb(0%,0%,0%);stroke-opacity:1;stroke-miterlimit:10;" d="M 67.582031 179.390625 L 71.324219 201.609375 "/>
<path style="fill:none;stroke-width:1.2;stroke-linecap:butt;stroke-linejoin:miter;stroke:rgb(0%,0%,0%);stroke-opacity:1;stroke-miterlimit:10;" d="M 57.289062 110.253906 L 46.730469 106.320312 "/>
<path style="fill:none;stroke-width:1.2;stroke-linecap:butt;stroke-linejoin:miter;stroke:rgb(100%,0%,0%);stroke-opacity:1;stroke-miterlimit:10;" d="M 46.730469 106.320312 L 36.175781 102.386719 "/>
<path style="fill:none;stroke-width:1.2;stroke-linecap:butt;stroke-linejoin:miter;stroke:rgb(0%,0%,0%);stroke-opacity:1;stroke-miterlimit:10;" d="M 55.4375 115.222656 L 44.878906 111.289062 "/>
<path style="fill:none;stroke-width:1.2;stroke-linecap:butt;stroke-linejoin:miter;stroke:rgb(100%,0%,0%);stroke-opacity:1;stroke-miterlimit:10;" d="M 44.878906 111.289062 L 34.324219 107.351562 "/>
<path style="fill:none;stroke-width:1.2;stroke-linecap:butt;stroke-linejoin:miter;stroke:rgb(0%,0%,0%);stroke-opacity:1;stroke-miterlimit:10;" d="M 56.363281 112.738281 L 65.046875 105.566406 "/>
<path style="fill:none;stroke-width:1.2;stroke-linecap:butt;stroke-linejoin:miter;stroke:rgb(100%,0%,0%);stroke-opacity:1;stroke-miterlimit:10;" d="M 65.046875 105.566406 L 73.730469 98.390625 "/>
<path style=" stroke:none;fill-rule:nonzero;fill:rgb(100%,100%,100%);fill-opacity:1;" d="M 27.25 99.371094 L 35.25 99.371094 L 35.25 110.371094 L 27.25 110.371094 Z M 27.25 99.371094 "/>
<g style="fill:rgb(100%,0%,0%);fill-opacity:1;">
  <use xlink:href="#glyph0-3" x="27.25" y="108.03418"/>
</g>
<path style=" stroke:none;fill-rule:nonzero;fill:rgb(100%,100%,100%);fill-opacity:1;" d="M 68.730469 90.890625 L 79.730469 90.890625 L 79.730469 105.890625 L 68.730469 105.890625 Z M 68.730469 90.890625 "/>
<g style="fill:rgb(100%,0%,0%);fill-opacity:1;">
  <use xlink:href="#glyph0-3" x="68.730469" y="102.992188"/>
</g>
<g style="fill:rgb(100%,0%,0%);fill-opacity:1;">
  <use xlink:href="#glyph1-1" x="76.072266" y="98.109375"/>
</g>
</g>
</svg>

<svg xmlns="http://www.w3.org/2000/svg" xmlns:xlink="http://www.w3.org/1999/xlink" width="300pt" height="300pt" viewBox="0 0 300 300"><defs><symbol overflow="visible"><path d="M.453 1.594v-7.938h4.5v7.938zm.5-.5h3.5v-6.938h-3.5zm0 0"/></symbol><symbol overflow="visible" id="a"><path d="M.89-6.563h3.766v.75h-2.89v1.938h2.61v.734h-2.61V0H.89zm0 0"/></symbol><symbol overflow="visible" id="b"><path d="M.89-6.563H2.08l2.906 5.485v-5.484h.86V0H4.656L1.75-5.484V0H.89zm0 0"/></symbol><symbol overflow="visible" id="c"><path d="M3.547-5.953c-.65 0-1.164.242-1.547.72-.375.48-.563 1.13-.563 1.952 0 .835.188 1.49.563 1.967.383.48.898.72 1.547.72.644 0 1.156-.24 1.53-.72.376-.476.564-1.132.564-1.968 0-.822-.187-1.474-.562-1.954-.375-.477-.887-.72-1.53-.72zm0-.734c.914 0 1.648.312 2.203.937.55.617.828 1.438.828 2.47 0 1.042-.277 1.87-.828 2.483-.555.617-1.29.922-2.203.922-.93 0-1.668-.305-2.22-.922C.774-1.41.5-2.237.5-3.28c0-1.033.273-1.853.828-2.47.55-.625 1.29-.938 2.22-.938zm0 0"/></symbol><symbol overflow="visible" id="d"><path d="M.89-6.563h.876v2.688H5v-2.688h.89V0H5v-3.125H1.766V0H.89zm0 0"/></symbol><symbol overflow="visible"><path d="M.406 1.422V-5.64h4V1.42zM.844.97h3.11v-6.157H.843zm0 0"/></symbol><symbol overflow="visible" id="e"><path d="M.39-2.516H2.5v.64H.39zm0 0"/></symbol></defs><g><path fill="#fff" d="M0 0h300v300H0z"/><path d="M187.547 119.602l8.824 7.003" stroke-width="1.2" stroke="#3cc" stroke-miterlimit="10" fill="none"/><path d="M196.37 126.605l8.825 7.004" stroke-width="1.2" stroke="#000" stroke-miterlimit="10" fill="none"/><path d="M181.547 114.102h6v11h-6zm0 0" fill="#fff"/><use xlink:href="#a" x="181.547" y="122.765" fill="#3cc"/><path d="M205.195 133.61l20.953-8.282M209.238 137.71L226 131.087M201.887 155.895l3.308-22.286M226.148 125.328l17.65 14.008M243.797 139.336l10.476-4.137" stroke-width="1.2" stroke="#000" stroke-miterlimit="10" fill="none"/><path d="M254.273 135.2l10.477-4.14" stroke-width="1.2" stroke="#3cc" stroke-miterlimit="10" fill="none"/><path d="M243.797 139.336l-3.31 22.29M238.223 140.79l-2.65 17.827" stroke-width="1.2" stroke="#000" stroke-miterlimit="10" fill="none"/><path d="M261.75 125.56h6v11h-6zm0 0" fill="#fff"/><use xlink:href="#a" x="261.75" y="134.222" fill="#3cc"/><path d="M240.488 161.625l-20.957 8.277M219.53 169.902l-17.643-14.007M221.066 164.348L206.95 153.14M201.887 155.895l-10.477 4.136" stroke-width="1.2" stroke="#000" stroke-miterlimit="10" fill="none"/><path d="M191.41 160.03l-10.476 4.142M180.934 164.172l-5.62 21.82" stroke-width="1.2" stroke="#00f" stroke-miterlimit="10" fill="none"/><path d="M161.918 152.086l9.508 6.043" stroke-width="1.2" stroke="#000" stroke-miterlimit="10" fill="none"/><path d="M171.426 158.13l9.508 6.042" stroke-width="1.2" stroke="#00f" stroke-miterlimit="10" fill="none"/><path d="M177.934 158.672h7v11h-7zm0 0" fill="#fff"/><use xlink:href="#b" x="177.934" y="167.335" fill="#00f"/><path d="M175.313 185.992l-11.243.696" stroke-width="1.2" stroke="#00f" stroke-miterlimit="10" fill="none"/><path d="M164.07 186.688l-11.246.7" stroke-width="1.2" stroke="#000" stroke-miterlimit="10" fill="none"/><path d="M172.734 180.84l-8.992.558" stroke-width="1.2" stroke="#00f" stroke-miterlimit="10" fill="none"/><path d="M163.742 181.398l-8.996.56" stroke-width="1.2" stroke="#000" stroke-miterlimit="10" fill="none"/><path d="M172.313 180.492h7v11h-7zm0 0" fill="#fff"/><use xlink:href="#b" x="172.313" y="189.155" fill="#00f"/><path d="M152.824 187.387l-8.277-20.953M144.547 166.434l17.37-14.348M142.91 160.91l13.895-11.476M123.438 158.566l21.11 7.868M161.918 152.086l-1.87-11.11" stroke-width="1.2" stroke="#000" stroke-miterlimit="10" fill="none"/><path d="M160.047 140.977l-1.87-11.11M158.176 129.867l8.687-7.172" stroke-width="1.2" stroke="#00f" stroke-miterlimit="10" fill="none"/><path d="M166.863 122.695l8.684-7.175" stroke-width="1.2" stroke="#000" stroke-miterlimit="10" fill="none"/><path d="M158.176 129.867l-10.555-3.933" stroke-width="1.2" stroke="#00f" stroke-miterlimit="10" fill="none"/><path d="M147.62 125.934L137.067 122" stroke-width="1.2" stroke="#000" stroke-miterlimit="10" fill="none"/><path d="M155.176 124.367h7v11h-7zm0 0" fill="#fff"/><use xlink:href="#b" x="155.176" y="133.03" fill="#00f"/><path d="M139.68 121.56l-1.87-11.11" stroke-width="1.2" stroke="#000" stroke-miterlimit="10" fill="none"/><path d="M137.81 110.45l-1.87-11.11" stroke-width="1.2" stroke="#f00" stroke-miterlimit="10" fill="none"/><path d="M134.453 122.438l-1.87-11.11" stroke-width="1.2" stroke="#000" stroke-miterlimit="10" fill="none"/><path d="M132.582 111.328l-1.87-11.105" stroke-width="1.2" stroke="#f00" stroke-miterlimit="10" fill="none"/><path d="M137.066 122l-17.37 14.348" stroke-width="1.2" stroke="#000" stroke-miterlimit="10" fill="none"/><path d="M129.324 94.28h8v11h-8zm0 0" fill="#fff"/><use xlink:href="#c" x="129.324" y="102.944" fill="#f00"/><path d="M119.695 136.348l3.743 22.218M125.297 137.688l2.992 17.773M123.438 158.566l-8.688 7.172" stroke-width="1.2" stroke="#000" stroke-miterlimit="10" fill="none"/><path d="M114.75 165.738l-8.684 7.176M106.066 172.914l-10.554-3.937" stroke-width="1.2" stroke="#00f" stroke-miterlimit="10" fill="none"/><path d="M95.512 168.977l-10.56-3.934" stroke-width="1.2" stroke="#000" stroke-miterlimit="10" fill="none"/><path d="M99.066 167.414h14v11h-14zm0 0" fill="#fff"/><g fill="#00f"><use xlink:href="#b" x="99.066" y="176.077"/><use xlink:href="#d" x="106.044" y="176.077"/></g><path d="M84.953 165.043l-3.738-22.22M79.352 163.703L76.36 145.93M67.582 179.39l17.37-14.347M81.215 142.824l-21.113-7.867M60.102 134.957L42.73 149.305M61.742 140.48l-13.898 11.477M60.102 134.957l-3.74-22.22M42.73 149.305l3.743 22.218M46.473 171.523l21.11 7.868M50.434 167.344l16.89 6.293M67.582 179.39l3.742 22.22M57.29 110.254l-10.56-3.934" stroke-width="1.2" stroke="#000" stroke-miterlimit="10" fill="none"/><path d="M46.73 106.32l-10.554-3.933" stroke-width="1.2" stroke="#f00" stroke-miterlimit="10" fill="none"/><path d="M55.438 115.223l-10.56-3.934" stroke-width="1.2" stroke="#000" stroke-miterlimit="10" fill="none"/><path d="M44.88 111.29l-10.556-3.938" stroke-width="1.2" stroke="#f00" stroke-miterlimit="10" fill="none"/><path d="M56.363 112.738l8.684-7.172" stroke-width="1.2" stroke="#000" stroke-miterlimit="10" fill="none"/><path d="M65.047 105.566l8.683-7.175" stroke-width="1.2" stroke="#f00" stroke-miterlimit="10" fill="none"/><path d="M27.25 99.37h8v11h-8zm0 0" fill="#fff"/><use xlink:href="#c" x="27.25" y="108.034" fill="#f00"/><path d="M68.73 90.89h11v15h-11zm0 0" fill="#fff"/><use xlink:href="#c" x="68.73" y="102.992" fill="#f00"/><use xlink:href="#e" x="76.072" y="98.109" fill="#f00"/></g></svg>
